X: 30
T: Uralskaya ryabinushka
T: Uralin pihlaja
T: Ural Rowan Tree
C: E.Rodygin
M: 6/8
L: 1/8
K: Dm
|: "Dm"D2D F2D | "Gm"G3 D2E \
| "Dm"F2E "A7"A2G | "Dm"D3- D3 \
| "Dm"D2A A2F | "Gm"G3 D2E \
| "F"FEF "C7"A2G | "F"F3- F3 |
| "F"c2c "D7"cBA | "Gm"G3 D2D \
| "C7"E2F GFG | "F"A3- "A7"A3 \
| "Dm"F2F FGA | "Gm"c3 B2A \
| "A7"G2E A2G | "Dm"D3- D3 ||
|: "D7"D2[dB] [dB]>[cA][dB] | "Gm"[c3A3] [B3G3] \
| "C7"[B2G2][cA] [dB]>[cA][BG] | "F"[A3F3]- "A7"[A3E3] \
| "Dm"[F2D2][FD] [FD][GE][AF] | "Gm"[c3A3] [B2G2][AF] \
| "A7"[G2E2][E^C] [A2F2][GE] | "Dm"D3 z3 :|
%%sep 1 1 10cm
